T: Buttermilk Mary
M: 6/8
L: 1/8
K: Amaj
cAE FEC | EAc ecA | def edc | cBB Bed |cea ecA | daf ecA | dfd ced | cAA A2 :|eaa agf | ecA Ace | fbb b2 a | gee efg |aba gag | fgf efg | aec Bed | cAA A2 :|& ~ |: A/B/ | cAF FEC | ~
